!!!OTL: Loeung Preah Punlea
!!!XEN: Getting on the Pavilion
!! From Sam-Ang Sam & Patricia Shehan Campbell,
!! "Silent Temples, Songful Hearts: Traditional Music of Cambodia"
!! Danbury CT: World Music Press, 1991
!! page 103
!! Genre: ??
**kern	**silbe
*clefG2	*LKhmer
*k[]	*verse1
*M4/4	*
(8a	Euy
8cc)	|
qcc	.
(4a	luh
4g)	|
=1-	=1-
(8g	doeung
16a	|
16g	|
4e)	|
(8g	tha
16e	|
16g	|
4a)	|
=2	=2
qg	.
(1a	batt
=3	=3
4cc)	|
4e	eu
4g	eu
(8a	eu
8g)	|
=4	=4
qa	.
2cc	euy
(8dd	euy
16ee	|
16dd	|
4cc)	|
=5	=5
qcc	.
(4a	moha
4cc)	|
(8g	ksat
8e	|
4a)	|
=6	=6
(8g	tra
24cc	|
24a	|
24g	|
4.e	|
8g)	|
(8c	eu
16d	|
16c	|
=7	=7
4e)	eu
4g	eu
(16a	|
16g	|
8e	|
qg	|
8a	|
8cc)	|
=8	=8
2g	euy
(4cc	kang
16dd	|
16cc	|
16a	|
16cc)	|
=9	=9
2a	rey
(8dd	thi
8cc	|
4ee)	|
=10	=10
(12dd	da
12ee	|
12cc	|
[2.dd	|
=11	=11
8dd])	|
(8cc	eu
qdd	|
8ee	|
8gg)	|
(4cc	eu
qdd	|
12ee	|
12dd	|
12cc)	|
=12	=12
4ee	eu
(8dd	eu
8gg)	|
qdd	|
12ee	|
12dd	|
12cc	|
8ee	|
8dd)	|
=13	=13
(4cc	sen
qb	|
4cc)	|
(8b	sao
8cc	|
4dd)	|
=14	=14
qff	|
2cc	mang
4e	eu
8g	eu
8g	eu
=15	=15
4g	eu
4e	eu
(8a	eu
8cc	|
8g	|
8g)	|
=16	=16
4g	euy.
==	==
*-	*-
